packages/ui-icons/src/Basic/24/Obedinyay_24.svg

<?xml version="1.0" encoding="utf-8"?>
<svg version="1.1" id="Слой_1" xmlns="http://www.w3.org/2000/svg" xmlns:xlink="http://www.w3.org/1999/xlink" x="0px" y="0px"
	 viewBox="0 0 32 32" style="enable-background:new 0 0 32 32;" xml:space="preserve">
<path id="Shape" d="M18,25.00006H6.6c-1.43594,0-2.6-1.16406-2.6-2.6v-7.8c0-1.43594,1.16406-2.6,2.6-2.6h13.89475v0.00209
	c0.03491-0.00139,0.07-0.00209,0.10525-0.00209h4.8c1.43594,0,2.6,1.16406,2.6,2.6v10.8c0,1.43594-1.16406,2.6-2.6,2.6h-4.8
	c-1.43594,0-2.6-1.16406-2.6-2.6V25.00006z M18.06957,14.00006H6.6c-0.33137,0-0.6,0.26863-0.6,0.6v7.8
	c0,0.33137,0.26863,0.6,0.6,0.6H18v-8.4C18,14.39356,18.02407,14.19267,18.06957,14.00006L18.06957,14.00006z M26,25.40006v-10.8
	c0-0.33137-0.26863-0.6-0.6-0.6h-4.8c-0.33137,0-0.6,0.26863-0.6,0.6v10.8c0,0.33137,0.26863,0.6,0.6,0.6h4.8
	C25.73137,26.00006,26,25.73143,26,25.40006z M23,25.60006c-0.44183,0-0.8-0.35817-0.8-0.8s0.35817-0.8,0.8-0.8s0.8,0.35817,0.8,0.8
	S23.44183,25.60006,23,25.60006z M11,28.00006v-2h6v2H11z M14.42606,10.80006c-0.44183,0-0.8-0.35817-0.8-0.8s0.35817-0.8,0.8-0.8
	s0.8,0.35817,0.8,0.8S14.86789,10.80006,14.42606,10.80006z M17.41421,7.43413L16,8.84834
	c-0.85915-0.85915-2.25212-0.85915-3.11127,0l-1.41421-1.41421C13.11472,5.79393,15.77401,5.79393,17.41421,7.43413z
	 M19.67696,5.17139L18.26274,6.5856c-2.10883-2.10883-5.52792-2.10883-7.63675,0L9.21177,5.17139
	C12.10166,2.28151,16.78708,2.28151,19.67696,5.17139z"/>
</svg>

<svg xmlns="http://www.w3.org/2000/svg" viewBox="0 0 32 32" style="enable-background:new 0 0 32 32" xml:space="preserve"><path d="M18 25H6.6A2.6 2.6 0 0 1 4 22.4v-7.8A2.6 2.6 0 0 1 6.6 12h13.895v.002L20.6 12h4.8a2.6 2.6 0 0 1 2.6 2.6v10.8a2.6 2.6 0 0 1-2.6 2.6h-4.8a2.6 2.6 0 0 1-2.6-2.6V25zm.07-11H6.6a.6.6 0 0 0-.6.6v7.8a.6.6 0 0 0 .6.6H18v-8.4c0-.206.024-.407.07-.6zM26 25.4V14.6a.6.6 0 0 0-.6-.6h-4.8a.6.6 0 0 0-.6.6v10.8a.6.6 0 0 0 .6.6h4.8a.6.6 0 0 0 .6-.6zm-3 .2a.8.8 0 1 1 0-1.6.8.8 0 0 1 0 1.6zM11 28v-2h6v2h-6zm3.426-17.2a.8.8 0 1 1 0-1.6.8.8 0 0 1 0 1.6zm2.988-3.366L16 8.848a2.2 2.2 0 0 0-3.111 0l-1.414-1.414a4.2 4.2 0 0 1 5.94 0zm2.263-2.263-1.414 1.415a5.4 5.4 0 0 0-7.637 0L9.212 5.17a7.4 7.4 0 0 1 10.465 0z"/></svg>
